patterns/atoms/layout/icon.svg

<svg width="24" height="24" xmlns="http://www.w3.org/2000/svg">
  <path d="M20.5 8.5v7-7zm-17 0v7-7zm2 9v-11h13v11h-13zm.5-11c-.27614237 0-.5.22385763-.5.5v10c0 .2761424.22385763.5.5.5h12c.2761424 0 .5-.2238576.5-.5V7c0-.27614237-.2238576-.5-.5-.5H6z" fill="#5C5C5C"/>
</svg>

<?xml version="1.0" encoding="UTF-8"?>
<svg width="24px" height="24px" viewBox="0 0 24 24" version="1.1" xmlns="http://www.w3.org/2000/svg" xmlns:xlink="http://www.w3.org/1999/xlink">
    <g fill="#5C5C5C">
        <path d="M20.5,8.5 L20.5,15.5 L20.5,8.5 Z M3.5,8.5 L3.5,15.5 L3.5,8.5 Z M5.5,17.5 L5.5,6.5 L18.5,6.5 L18.5,17.5 L5.5,17.5 Z M6,6.5 C5.72385763,6.5 5.5,6.72385763 5.5,7 L5.5,17 C5.5,17.2761424 5.72385763,17.5 6,17.5 L18,17.5 C18.2761424,17.5 18.5,17.2761424 18.5,17 L18.5,7 C18.5,6.72385763 18.2761424,6.5 18,6.5 L6,6.5 Z"></path>
    </g>
</svg>
